packages/foundations/assets/icons/functional/images/audio & video/skip_backward_20_filled.svg

<svg width="20" height="20" viewBox="0 0 20 20" fill="none" xmlns="http://www.w3.org/2000/svg">
<g clip-path="url(#clip0_2202_572)">
<path fill-rule="evenodd" clip-rule="evenodd" d="M16 15.003V5.016C16 4.508 15.61 4.019 14.984 4C14.7817 4.00115 14.5844 4.06241 14.417 4.176L8.213 8.632C7.99107 8.78479 7.8094 8.989 7.68351 9.22721C7.55761 9.46543 7.49122 9.73057 7.49 10C7.49 10.528 7.764 11.055 8.213 11.348L14.456 15.844C14.612 15.941 14.808 16 15.003 16C15.57 16 16 15.55 16 15.003ZM5.994 14.007V5.993C5.99295 5.729 5.88753 5.47612 5.70076 5.28953C5.51399 5.10295 5.26101 4.99779 4.997 4.997C4.449 4.997 4 5.447 4 5.994V14.007C4.00105 14.271 4.10647 14.5239 4.29324 14.7105C4.48001 14.8971 4.733 15.0022 4.997 15.003C5.544 15.003 5.994 14.553 5.994 14.007Z" fill="#1A1C1F"/>
</g>
<defs>
<clipPath id="clip0_2202_572">
<rect width="20" height="20" fill="white"/>
</clipPath>
</defs>
</svg>

<svg xmlns="http://www.w3.org/2000/svg" width="20" height="20" fill="none"><g clip-path="url(#a)"><path fill="#1A1C1F" fill-rule="evenodd" d="M16 15.003V5.016c0-.508-.39-.997-1.016-1.016a1 1 0 0 0-.567.176L8.213 8.632A1.67 1.67 0 0 0 7.49 10c0 .528.274 1.055.723 1.348l6.243 4.496c.156.097.352.156.547.156.567 0 .997-.45.997-.997m-10.006-.996V5.993a1 1 0 0 0-.997-.996c-.548 0-.997.45-.997.997v8.013a1 1 0 0 0 .997.996c.547 0 .997-.45.997-.996" clip-rule="evenodd"/></g><defs><clipPath id="a"><path fill="#fff" d="M0 0h20v20H0z"/></clipPath></defs></svg>
